apps/scalable/kanagram.svg

<svg xmlns="http://www.w3.org/2000/svg" style="isolation:isolate" width="256" height="256"><defs><filter id="a" width="270.648" height="254.338" x="-7.32" y="2.95" filterUnits="userSpaceOnUse"><feGaussianBlur xmlns="http://www.w3.org/2000/svg" in="SourceGraphic" stdDeviation="4.294"/><feOffset xmlns="http://www.w3.org/2000/svg" dy="4" result="pf_100_offsetBlur"/><feFlood xmlns="http://www.w3.org/2000/svg" flood-opacity=".4"/><feComposite xmlns="http://www.w3.org/2000/svg" in2="pf_100_offsetBlur" operator="in" result="pf_100_dropShadow"/><feBlend xmlns="http://www.w3.org/2000/svg" in="SourceGraphic" in2="pf_100_dropShadow"/></filter></defs><path fill="#CCC" d="M165.685 11.947c74.055 0 84.639 10.557 84.639 84.544v59.251c0 73.986-10.584 84.543-84.639 84.543h-75.37c-74.055 0-84.639-10.557-84.639-84.543V96.491c0-73.987 10.584-84.544 84.639-84.544h75.37z" filter="url(#a)"/><g opacity=".4"><linearGradient id="b" x1=".517" x2=".517" y2="1"><stop offset="0%" stop-color="#fff"/><stop offset="12.5%" stop-opacity=".098" stop-color="#fff"/><stop offset="92.5%" stop-opacity=".098"/><stop offset="100%" stop-opacity=".498"/></linearGradient><path fill="none" stroke="url(#b)" stroke-linecap="round" stroke-linejoin="round" stroke-width="4.077" d="M165.685 11.947c74.055 0 84.639 10.557 84.639 84.544v59.251c0 73.986-10.584 84.543-84.639 84.543h-75.37c-74.055 0-84.639-10.557-84.639-84.543V96.491c0-73.987 10.584-84.544 84.639-84.544h75.37z" vector-effect="non-scaling-stroke"/></g><path fill="#ED3146" fill-rule="evenodd" d="M65.077 68.319a1.067 1.067 0 0 0-.784.459l-4.351 6.116a1.248 1.248 0 0 0 .294 1.743l6.84 7.581c-.285.946-.508 1.91-.667 2.886l-9.454 3.838a1.248 1.248 0 0 0-1.025 1.441l1.248 7.395c.115.683.749.989 1.441 1.025l10.195.528c.459.862.973 1.693 1.539 2.488l-3.98 9.427c-.27.637-.27 1.341.294 1.743l6.112 4.351c.564.401 1.341.27 1.743-.294l7.597-6.857c.955.29 1.928.516 2.912.677l3.839 9.454c.115.683.757 1.14 1.44 1.025l7.396-1.248c.683-.115.989-.748 1.024-1.44l.528-10.196a22.519 22.519 0 0 0 2.524-1.565l9.385 3.968c.564.401 1.341.27 1.743-.294l4.351-6.117c.401-.564.169-1.228-.295-1.743l-2.923-3.24-1.608.979-6.919-7.349a17.5 17.5 0 0 1-14.003 12.83c-9.531 1.608-18.56-4.815-20.168-14.345a17.5 17.5 0 0 1 7.234-17.234l-.895-5.306a22.35 22.35 0 0 0-2.263 1.407l-9.385-3.968c-.319-.135-.653-.202-.959-.165zm24.682-15.87l-12.134 3.22 8.126 48.163 11.909-4.545-3.327-19.721 18.534 19.691 11.494-7.01-19.522-18.039 12.462-23.87-13.324-.288-10.683 23.353-3.535-20.954z"/><path fill="#1A7FD4" fill-rule="evenodd" d="M172.901 149.324q10.911-2.213 17.185 1.946 6.274 4.158 8.429 14.781l4.056 20.003q.738 3.637-.998 6.132-1.736 2.494-5.564 3.27-3.35.68-5.892-.798-2.541-1.477-3.393-4.692-.641 3.717-3.411 6.272-2.77 2.554-7.173 3.447-4.881.99-9.203-.176-4.322-1.166-7.279-4.203-2.958-3.037-3.851-7.44-1.029-5.072.992-8.621 2.02-3.549 7.491-6.053 5.471-2.505 15.233-4.485l2.584-.524-.233-1.148q-.679-3.35-2.512-4.523-1.832-1.173-5.469-.435-3.924.796-10.941 5.009-2.046 1.212-3.577 1.523-2.393.485-4.178-.947-1.785-1.431-2.348-4.207-.427-2.105.163-3.62.589-1.514 2.29-2.955 3-2.403 7.859-4.484 4.859-2.082 9.74-3.072zm4.949 38.157q3.446-.699 5.152-3.586t.93-6.715l-.233-1.149-1.532.311q-6.125 1.242-8.486 2.867-2.361 1.625-1.837 4.209.447 2.201 2.126 3.355 1.679 1.154 3.88.708z"/><path fill="#46A926" d="M94.238 146.663q8.486 1.358 11.823 7.083 3.336 5.726 1.686 16.044l-3.331 20.829q-.586 3.665-3.24 5.416-2.654 1.751-6.607 1.119-3.954-.632-5.929-3.124t-1.389-6.156l3.208-20.058q.679-4.243-.507-6.41-1.187-2.168-4.176-2.646-3.857-.617-6.517 1.479-2.659 2.097-3.322 6.244l-3.054 19.093q-.586 3.664-3.24 5.415-2.654 1.752-6.607 1.119-3.954-.632-5.929-3.124-1.975-2.491-1.389-6.156l5.337-33.365q.54-3.375 3.297-5.159 2.758-1.784 6.615-1.167 3.665.586 5.511 2.958 1.845 2.372 1.321 5.651 3.093-3.263 7.355-4.56 4.262-1.296 9.084-.525z"/><path fill="#E95420" fill-rule="evenodd" d="M172.803 54.359q11.043-1.416 16.998 3.186 5.956 4.603 7.334 15.355l2.596 20.244q.472 3.681-1.441 6.043-1.912 2.362-5.787 2.859-3.39.434-5.818-1.224-2.428-1.658-3.044-4.926-.909 3.661-3.857 6.008-2.948 2.347-7.404 2.918-4.94.633-9.166-.843-4.226-1.477-6.955-4.72-2.73-3.244-3.301-7.7-.658-5.134 1.615-8.526 2.272-3.393 7.91-5.494t15.518-3.368l2.616-.335-.15-1.163q-.434-3.39-2.176-4.692-1.743-1.303-5.423-.831-3.972.509-11.276 4.202-2.129 1.061-3.679 1.259-2.421.311-4.098-1.247-1.676-1.557-2.036-4.366-.274-2.131.424-3.599.698-1.468 2.499-2.782 3.167-2.178 8.164-3.901 4.997-1.724 9.937-2.357zm2.168 38.415q3.487-.447 5.398-3.203 1.911-2.755 1.415-6.63l-.149-1.162-1.55.198q-6.199.795-8.672 2.244-2.472 1.449-2.137 4.065.285 2.228 1.876 3.501 1.591 1.272 3.819.987z"/></svg>

<svg xmlns="http://www.w3.org/2000/svg" style="isolation:isolate" width="256" height="256" viewBox="0 0 256 256">
 <defs>
  <filter id="KpvlbjETji9VntVsjKtSGCOBq60BwBU9" width="270.648" height="254.338" x="-7.32" y="2.95" filterUnits="userSpaceOnUse">
   <feGaussianBlur xmlns="http://www.w3.org/2000/svg" in="SourceGraphic" stdDeviation="4.294"/>
   <feOffset xmlns="http://www.w3.org/2000/svg" dx="0" dy="4" result="pf_100_offsetBlur"/>
   <feFlood xmlns="http://www.w3.org/2000/svg" flood-opacity=".4"/>
   <feComposite xmlns="http://www.w3.org/2000/svg" in2="pf_100_offsetBlur" operator="in" result="pf_100_dropShadow"/>
   <feBlend xmlns="http://www.w3.org/2000/svg" in="SourceGraphic" in2="pf_100_dropShadow" mode="normal"/>
  </filter>
 </defs>
 <g filter="url(#KpvlbjETji9VntVsjKtSGCOBq60BwBU9)">
  <path fill="#CCCCCC" d="M 165.685 11.947 C 239.74 11.947 250.324 22.504 250.324 96.491 L 250.324 155.742 C 250.324 229.728 239.74 240.285 165.685 240.285 L 90.315 240.285 C 16.26 240.285 5.676 229.728 5.676 155.742 L 5.676 96.491 C 5.676 22.504 16.26 11.947 90.315 11.947 L 165.685 11.947 Z"/>
 </g>
 <g opacity=".4">
  <linearGradient id="_lgradient_173" x1=".517" x2=".517" y1="0" y2="1">
   <stop offset="0%" style="stop-color:rgb(255,255,255)"/>
   <stop offset="12.5%" stop-opacity=".098" style="stop-color:rgb(255,255,255)"/>
   <stop offset="92.5%" stop-opacity=".098" style="stop-color:rgb(0,0,0)"/>
   <stop offset="100%" stop-opacity=".498" style="stop-color:rgb(0,0,0)"/>
  </linearGradient>
  <path fill="none" stroke="url(#_lgradient_173)" stroke-linecap="round" stroke-linejoin="round" stroke-width="4.077" d="M 165.685 11.947 C 239.74 11.947 250.324 22.504 250.324 96.491 L 250.324 155.742 C 250.324 229.728 239.74 240.285 165.685 240.285 L 90.315 240.285 C 16.26 240.285 5.676 229.728 5.676 155.742 L 5.676 96.491 C 5.676 22.504 16.26 11.947 90.315 11.947 L 165.685 11.947 Z" vector-effect="non-scaling-stroke"/>
 </g>
 <path fill="#ED3146" fill-rule="evenodd" d="M 65.077 68.319 C 64.771 68.351 64.494 68.494 64.293 68.778 L 59.942 74.894 C 59.541 75.458 59.672 76.236 60.236 76.637 L 67.076 84.218 C 66.791 85.164 66.568 86.128 66.409 87.104 L 56.955 90.942 C 56.272 91.057 55.815 91.7 55.93 92.383 L 57.178 99.778 C 57.293 100.461 57.927 100.767 58.619 100.803 L 68.814 101.331 C 69.273 102.193 69.787 103.024 70.353 103.819 L 66.373 113.246 C 66.103 113.883 66.103 114.587 66.667 114.989 L 72.779 119.34 C 73.343 119.741 74.12 119.61 74.522 119.046 L 82.119 112.189 C 83.074 112.479 84.047 112.705 85.031 112.866 L 88.87 122.32 C 88.985 123.003 89.627 123.46 90.31 123.345 L 97.706 122.097 C 98.389 121.982 98.695 121.349 98.73 120.657 L 99.258 110.461 C 100.133 109.995 100.976 109.473 101.782 108.896 L 111.167 112.864 C 111.731 113.265 112.508 113.134 112.91 112.57 L 117.261 106.453 C 117.662 105.889 117.43 105.225 116.966 104.71 L 114.043 101.47 L 112.435 102.449 L 105.516 95.1 C 103.777 101.758 98.297 106.778 91.513 107.93 C 81.982 109.538 72.953 103.115 71.345 93.585 C 70.23 86.926 73.045 80.219 78.579 76.351 L 77.684 71.045 C 76.902 71.469 76.147 71.938 75.421 72.452 L 66.036 68.484 C 65.717 68.349 65.383 68.282 65.077 68.319 L 65.077 68.319 Z M 89.759 52.449 L 77.625 55.669 L 85.751 103.832 L 97.66 99.287 L 94.333 79.566 L 112.867 99.257 L 124.361 92.247 L 104.839 74.208 L 117.301 50.338 L 103.977 50.05 L 93.294 73.403 L 89.759 52.449 Z"/>
 <path fill="#1A7FD4" fill-rule="evenodd" d="M 172.901 149.324 L 172.901 149.324 Q 183.812 147.111 190.086 151.27 L 190.086 151.27 L 190.086 151.27 Q 196.36 155.428 198.515 166.051 L 198.515 166.051 L 202.571 186.054 L 202.571 186.054 Q 203.309 189.691 201.573 192.186 L 201.573 192.186 L 201.573 192.186 Q 199.837 194.68 196.009 195.456 L 196.009 195.456 L 196.009 195.456 Q 192.659 196.136 190.117 194.658 L 190.117 194.658 L 190.117 194.658 Q 187.576 193.181 186.724 189.966 L 186.724 189.966 L 186.724 189.966 Q 186.083 193.683 183.313 196.238 L 183.313 196.238 L 183.313 196.238 Q 180.543 198.792 176.14 199.685 L 176.14 199.685 L 176.14 199.685 Q 171.259 200.675 166.937 199.509 L 166.937 199.509 L 166.937 199.509 Q 162.615 198.343 159.658 195.306 L 159.658 195.306 L 159.658 195.306 Q 156.7 192.269 155.807 187.866 L 155.807 187.866 L 155.807 187.866 Q 154.778 182.794 156.799 179.245 L 156.799 179.245 L 156.799 179.245 Q 158.819 175.696 164.29 173.192 L 164.29 173.192 L 164.29 173.192 Q 169.761 170.687 179.523 168.707 L 179.523 168.707 L 182.107 168.183 L 181.874 167.035 L 181.874 167.035 Q 181.195 163.685 179.362 162.512 L 179.362 162.512 L 179.362 162.512 Q 177.53 161.339 173.893 162.077 L 173.893 162.077 L 173.893 162.077 Q 169.969 162.873 162.952 167.086 L 162.952 167.086 L 162.952 167.086 Q 160.906 168.298 159.375 168.609 L 159.375 168.609 L 159.375 168.609 Q 156.982 169.094 155.197 167.662 L 155.197 167.662 L 155.197 167.662 Q 153.412 166.231 152.849 163.455 L 152.849 163.455 L 152.849 163.455 Q 152.422 161.35 153.012 159.835 L 153.012 159.835 L 153.012 159.835 Q 153.601 158.321 155.302 156.88 L 155.302 156.88 L 155.302 156.88 Q 158.302 154.477 163.161 152.396 L 163.161 152.396 L 163.161 152.396 Q 168.02 150.314 172.901 149.324 L 172.901 149.324 Z M 177.85 187.481 L 177.85 187.481 Q 181.296 186.782 183.002 183.895 L 183.002 183.895 L 183.002 183.895 Q 184.708 181.008 183.932 177.18 L 183.932 177.18 L 183.699 176.031 L 182.167 176.342 L 182.167 176.342 Q 176.042 177.584 173.681 179.209 L 173.681 179.209 L 173.681 179.209 Q 171.32 180.834 171.844 183.418 L 171.844 183.418 L 171.844 183.418 Q 172.291 185.619 173.97 186.773 L 173.97 186.773 L 173.97 186.773 Q 175.649 187.927 177.85 187.481 L 177.85 187.481 Z"/>
 <path fill="#46A926" d="M 94.238 146.663 L 94.238 146.663 Q 102.724 148.021 106.061 153.746 L 106.061 153.746 L 106.061 153.746 Q 109.397 159.472 107.747 169.79 L 107.747 169.79 L 104.416 190.619 L 104.416 190.619 Q 103.83 194.284 101.176 196.035 L 101.176 196.035 L 101.176 196.035 Q 98.522 197.786 94.569 197.154 L 94.569 197.154 L 94.569 197.154 Q 90.615 196.522 88.64 194.03 L 88.64 194.03 L 88.64 194.03 Q 86.665 191.538 87.251 187.874 L 87.251 187.874 L 90.459 167.816 L 90.459 167.816 Q 91.138 163.573 89.952 161.406 L 89.952 161.406 L 89.952 161.406 Q 88.765 159.238 85.776 158.76 L 85.776 158.76 L 85.776 158.76 Q 81.919 158.143 79.259 160.239 L 79.259 160.239 L 79.259 160.239 Q 76.6 162.336 75.937 166.483 L 75.937 166.483 L 72.883 185.576 L 72.883 185.576 Q 72.297 189.24 69.643 190.991 L 69.643 190.991 L 69.643 190.991 Q 66.989 192.743 63.036 192.11 L 63.036 192.11 L 63.036 192.11 Q 59.082 191.478 57.107 188.986 L 57.107 188.986 L 57.107 188.986 Q 55.132 186.495 55.718 182.83 L 55.718 182.83 L 61.055 149.465 L 61.055 149.465 Q 61.595 146.09 64.352 144.306 L 64.352 144.306 L 64.352 144.306 Q 67.11 142.522 70.967 143.139 L 70.967 143.139 L 70.967 143.139 Q 74.632 143.725 76.478 146.097 L 76.478 146.097 L 76.478 146.097 Q 78.323 148.469 77.799 151.748 L 77.799 151.748 L 77.799 151.748 Q 80.892 148.485 85.154 147.188 L 85.154 147.188 L 85.154 147.188 Q 89.416 145.892 94.238 146.663 L 94.238 146.663 Z"/>
 <path fill="#E95420" fill-rule="evenodd" d="M 172.803 54.359 L 172.803 54.359 Q 183.846 52.943 189.801 57.545 L 189.801 57.545 L 189.801 57.545 Q 195.757 62.148 197.135 72.9 L 197.135 72.9 L 199.731 93.144 L 199.731 93.144 Q 200.203 96.825 198.29 99.187 L 198.29 99.187 L 198.29 99.187 Q 196.378 101.549 192.503 102.046 L 192.503 102.046 L 192.503 102.046 Q 189.113 102.48 186.685 100.822 L 186.685 100.822 L 186.685 100.822 Q 184.257 99.164 183.641 95.896 L 183.641 95.896 L 183.641 95.896 Q 182.732 99.557 179.784 101.904 L 179.784 101.904 L 179.784 101.904 Q 176.836 104.251 172.38 104.822 L 172.38 104.822 L 172.38 104.822 Q 167.44 105.455 163.214 103.979 L 163.214 103.979 L 163.214 103.979 Q 158.988 102.502 156.259 99.259 L 156.259 99.259 L 156.259 99.259 Q 153.529 96.015 152.958 91.559 L 152.958 91.559 L 152.958 91.559 Q 152.3 86.425 154.573 83.033 L 154.573 83.033 L 154.573 83.033 Q 156.845 79.64 162.483 77.539 L 162.483 77.539 L 162.483 77.539 Q 168.121 75.438 178.001 74.171 L 178.001 74.171 L 180.617 73.836 L 180.467 72.673 L 180.467 72.673 Q 180.033 69.283 178.291 67.981 L 178.291 67.981 L 178.291 67.981 Q 176.548 66.678 172.868 67.15 L 172.868 67.15 L 172.868 67.15 Q 168.896 67.659 161.592 71.352 L 161.592 71.352 L 161.592 71.352 Q 159.463 72.413 157.913 72.611 L 157.913 72.611 L 157.913 72.611 Q 155.492 72.922 153.815 71.364 L 153.815 71.364 L 153.815 71.364 Q 152.139 69.807 151.779 66.998 L 151.779 66.998 L 151.779 66.998 Q 151.505 64.867 152.203 63.399 L 152.203 63.399 L 152.203 63.399 Q 152.901 61.931 154.702 60.617 L 154.702 60.617 L 154.702 60.617 Q 157.869 58.439 162.866 56.716 L 162.866 56.716 L 162.866 56.716 Q 167.863 54.992 172.803 54.359 L 172.803 54.359 Z M 174.971 92.774 L 174.971 92.774 Q 178.458 92.327 180.369 89.571 L 180.369 89.571 L 180.369 89.571 Q 182.28 86.816 181.784 82.941 L 181.784 82.941 L 181.635 81.779 L 180.085 81.977 L 180.085 81.977 Q 173.886 82.772 171.413 84.221 L 171.413 84.221 L 171.413 84.221 Q 168.941 85.67 169.276 88.286 L 169.276 88.286 L 169.276 88.286 Q 169.561 90.514 171.152 91.787 L 171.152 91.787 L 171.152 91.787 Q 172.743 93.059 174.971 92.774 L 174.971 92.774 Z"/>
</svg>
